src/assets/imgs/icons/wallet/ic_transaction_line.svg

<?xml version="1.0" encoding="UTF-8"?>
<svg width="24px" height="24px" viewBox="0 0 24 24" version="1.1" xmlns="http://www.w3.org/2000/svg" xmlns:xlink="http://www.w3.org/1999/xlink">
    <!-- Generator: Sketch 50.2 (55047) - http://www.bohemiancoding.com/sketch -->
    <title>ic_transaction_line</title>
    <desc>Created with Sketch.</desc>
    <defs></defs>
    <g id="Page-1" stroke="none" stroke-width="1" fill="none" fill-rule="evenodd">
        <g id="00A_Export" transform="translate(-213.000000, -113.000000)">
            <g id="ic_transaction_line" transform="translate(213.000000, 113.000000)">
                <rect id="Gudie" fill-opacity="0" fill="#D8D8D8" x="0" y="0" width="24" height="24"></rect>
                <g id="Shape" transform="translate(1.000000, 1.000000)" fill="#696B8A" fill-rule="nonzero">
                    <path d="M11,0 C13.9173814,0 16.7152744,1.15892524 18.7781746,3.22182541 C20.8410748,5.28472557 22,8.0826186 22,11 C22,17.0751322 17.0751322,22 11,22 C4.92486775,22 0,17.0751322 0,11 C0,4.92486775 4.92486775,0 11,0 Z M11,1 C5.4771525,1 1,5.4771525 1,11 C1,16.5228475 5.4771525,21 11,21 C16.5228475,21 21,16.5228475 21,11 C21,8.34783509 19.9464316,5.80429597 18.0710678,3.92893219 C16.195704,2.0535684 13.6521649,1 11,1 Z M13.462,5.809 C13.54,5.996 13.497,6.211 13.354,6.354 L6.354,13.354 C6.256,13.452 6.128,13.5 6,13.5 C5.872,13.5 5.744,13.452 5.647,13.354 C5.451,13.159 5.451,12.842 5.647,12.647 L11.793,6.5 L9,6.5 C8.724,6.5 8.5,6.277 8.5,6 C8.5,5.724 8.724,5.5 9,5.5 L13,5.5 C13.202,5.5 13.385,5.622 13.462,5.809 Z M16.3536,8.6469 C16.5486,8.8419 16.5486,9.1589 16.3536,9.3539 L10.2076,15.5009 L12.9996,15.5009 C13.2766,15.5009 13.4996,15.7239 13.4996,16.0009 C13.4996,16.2769 13.2766,16.5009 12.9996,16.5009 L8.9996,16.5009 C8.7976,16.5009 8.6156,16.3789 8.5386,16.1919 C8.4606,16.0049 8.5036,15.7899 8.6466,15.6469 L15.6466,8.6469 C15.8416,8.4519 16.1586,8.4519 16.3536,8.6469 Z" id="Combined-Shape"></path>
                </g>
                <rect id="Overlay" x="0" y="0" width="24" height="24"></rect>
            </g>
        </g>
    </g>
</svg>

<?xml version="1.0" encoding="utf-8"?>
<!-- Generator: Adobe Illustrator 23.0.1, SVG Export Plug-In . SVG Version: 6.00 Build 0)  -->
<svg version="1.1" id="图层_1" xmlns="http://www.w3.org/2000/svg" xmlns:xlink="http://www.w3.org/1999/xlink" x="0px" y="0px"
	 viewBox="0 0 24 24" style="enable-background:new 0 0 24 24;" xml:space="preserve">
<style type="text/css">
	.st0{fill-rule:evenodd;clip-rule:evenodd;fill:#D8D8D8;fill-opacity:0;}
	.st1{fill:#AEAEAE;}
	.st2{fill:none;}
</style>
<title>ic_transaction_line</title>
<desc>Created with Sketch.</desc>
<rect id="Gudie" y="0" class="st0" width="24" height="24"/>
<g id="Shape" transform="translate(1.000000, 1.000000)">
	<path id="Combined-Shape" class="st1" d="M11,0c2.9,0,5.7,1.2,7.8,3.2S22,8.1,22,11c0,6.1-4.9,11-11,11S0,17.1,0,11S4.9,0,11,0z
		 M11,1C5.5,1,1,5.5,1,11s4.5,10,10,10s10-4.5,10-10c0-2.7-1.1-5.2-2.9-7.1S13.7,1,11,1z M13.5,5.8c0.1,0.2,0,0.4-0.1,0.5l-7,7
		c-0.1,0.1-0.2,0.1-0.4,0.1s-0.3,0-0.4-0.1c-0.2-0.2-0.2-0.5,0-0.7l6.1-6.1H9C8.7,6.5,8.5,6.3,8.5,6c0-0.3,0.2-0.5,0.5-0.5h4
		C13.2,5.5,13.4,5.6,13.5,5.8z M16.4,8.6c0.2,0.2,0.2,0.5,0,0.7l-6.1,6.1H13c0.3,0,0.5,0.2,0.5,0.5c0,0.3-0.2,0.5-0.5,0.5H9
		c-0.2,0-0.4-0.1-0.5-0.3c-0.1-0.2,0-0.4,0.1-0.5l7-7C15.8,8.5,16.2,8.5,16.4,8.6z"/>
</g>
<rect id="Overlay" y="0" class="st2" width="24" height="24"/>
</svg>
